public/svgs/art-3.svg

<svg width="208" height="200" viewBox="0 0 208 200" fill="none" xmlns="http://www.w3.org/2000/svg">
<path d="M102.872 186.854C90.6952 186.854 78.745 182.854 69.227 175.593C47.7888 159.246 31.5232 139.884 22.1961 119.605C16.6469 107.54 13.7726 95.1761 13.6525 82.8594V82.7648C13.6307 73.0575 15.6724 63.1794 19.5594 54.1948C23.591 44.8739 29.6315 36.4753 37.0315 29.9083C39.7965 27.446 42.7909 25.2071 45.9299 23.252C55.9066 17.0319 67.046 13.6052 77.2874 13.6052C84.035 13.6052 90.3376 15.0426 96.0206 17.8807C98.813 19.2761 101.341 21.0236 103.557 23.0444C104.6 22.2376 105.672 21.4729 106.77 20.7529C114.374 15.7679 122.997 13.1348 131.705 13.1348C132.81 13.1348 133.932 13.1768 135.037 13.2609C145.729 14.0782 156.623 18.4246 166.54 25.8378C175.837 32.7884 183.144 41.5523 187.672 51.1833C194.788 66.304 196.257 82.77 192.031 100.122C188.532 114.496 181.29 128.849 170.511 142.779C165.53 149.223 159.896 155.406 153.768 161.151C148.352 166.225 142.664 171.037 136.858 175.459C127.212 182.807 115.141 186.854 102.872 186.854Z" fill="#7E55A3"/>
<path d="M131.703 26.2732C132.448 26.2732 133.201 26.3021 133.958 26.3599C142.853 27.0379 151.198 31.0059 158.169 36.217C165.356 41.5909 171.473 48.5941 175.24 56.6038C187.736 83.1555 177.314 111.999 159.569 134.932C154.877 141 149.674 146.652 144.248 151.742C139.237 156.436 133.933 160.94 128.392 165.16C120.918 170.852 111.892 173.719 102.876 173.719C93.8599 173.719 85.0815 170.926 77.7061 165.299C59.6608 151.537 43.8429 134.215 34.6769 114.288C30.1567 104.459 27.408 93.7773 27.3015 82.7403C27.2661 66.721 33.9618 50.5046 46.2858 39.5701C48.4613 37.6307 50.8142 35.8622 53.3391 34.2907C60.234 29.9916 68.8568 26.7488 77.2858 26.7488C81.5712 26.7488 85.8048 27.5871 89.7382 29.5501C96.8569 33.1056 101.172 40.7132 100.187 48.4128C100.334 47.2565 101.503 45.7403 102.092 44.7338C108.182 34.3696 119.081 26.2784 131.703 26.2784M131.706 0C122.059 0 112.547 2.42288 103.886 7.05051C103.367 6.76671 102.837 6.49077 102.305 6.22273C94.6569 2.40448 86.2388 0.470386 77.2858 0.470386C70.2571 0.470386 63.0482 1.6792 55.8558 4.06002C49.8507 6.0493 44.0121 8.79802 38.5011 12.2352C34.7042 14.5977 31.0902 17.3044 27.7519 20.2765C18.9244 28.1179 11.7347 38.1011 6.95517 49.1512C2.38038 59.7309 -0.02438 71.3644 0.000186351 82.7981V82.8927V82.9873C0.136666 97.1067 3.40401 111.216 9.71209 124.93C15.1194 136.685 22.563 148.105 31.8408 158.879C40.1224 168.497 49.848 177.587 60.7499 185.902C66.8069 190.521 73.579 194.085 80.8779 196.487C87.9612 198.817 95.3584 200 102.868 200C110.377 200 117.91 198.799 125.073 196.429C132.41 194.003 139.22 190.416 145.321 185.77C151.492 181.066 157.533 175.958 163.273 170.579L163.279 170.573L163.284 170.568C169.931 164.338 176.045 157.626 181.458 150.623C187.013 143.444 191.806 135.983 195.693 128.457C200.024 120.071 203.262 111.549 205.312 103.125C207.626 93.6143 208.456 84.1383 207.776 74.954C207.026 64.821 204.441 54.9982 200.093 45.7613C194.655 34.1988 185.943 23.7189 174.901 15.4649C162.872 6.47502 149.456 1.18516 136.106 0.168186C134.643 0.0578164 133.16 0 131.697 0H131.706Z" fill="#0B0B0B"/>
<path d="M102.872 175.555C93.3291 175.555 83.9693 172.423 76.5148 166.736C56.5588 151.521 41.486 133.638 32.926 115.028C28.0291 104.38 25.4906 93.5217 25.3868 82.7528C25.3514 65.7821 32.6776 49.1347 44.988 38.2108C47.2591 36.1873 49.7211 34.3452 52.3006 32.7396C60.4075 27.6863 69.2814 24.9034 77.2845 24.9034C82.1323 24.9034 86.617 25.9151 90.6158 27.9096C96.3589 30.7766 100.358 35.9298 101.723 41.7505C108.871 31.0079 120.164 24.4277 131.702 24.4277C132.499 24.4277 133.309 24.4593 134.109 24.5197C142.514 25.1609 151.237 28.7006 159.341 34.7578C167.134 40.5837 173.235 47.8734 176.98 55.8384C183.004 68.6386 184.224 82.6687 180.605 97.537C177.518 110.214 170.773 123.521 161.099 136.024C156.486 141.992 151.262 147.721 145.579 153.053C140.453 157.854 135.067 162.411 129.575 166.597C121.992 172.373 112.51 175.552 102.872 175.552V175.555Z" fill="#7E55A3"/>
<path d="M131.702 26.2766C132.447 26.2766 133.201 26.3055 133.957 26.3634C142.853 27.0413 151.197 31.0094 158.168 36.2204C165.355 41.5944 171.472 48.5976 175.239 56.6072C187.735 83.159 177.314 112.002 159.569 134.935C154.876 141.003 149.674 146.656 144.247 151.746C139.236 156.439 133.932 160.943 128.391 165.163C120.918 170.855 111.891 173.722 102.875 173.722C93.8592 173.722 85.0808 170.929 77.7055 165.303C59.6602 151.541 43.8422 134.218 34.6762 114.291C30.156 104.463 27.4073 93.7807 27.3009 82.7438C27.2654 66.7244 33.9638 50.508 46.2852 39.5735C48.4607 37.6342 50.8136 35.8656 53.3384 34.2942C60.2334 29.995 68.8561 26.7523 77.2851 26.7523C81.5706 26.7523 85.8042 27.5906 89.7375 29.5536C96.8563 33.109 101.172 40.7166 100.186 48.4162C100.334 47.26 101.502 45.7437 102.092 44.7372C108.181 34.373 119.081 26.2819 131.702 26.2819M131.702 22.6029C124.976 22.6029 118.264 24.671 112.298 28.5813C108.577 31.0173 105.212 34.1129 102.359 37.6946C102.064 37.0166 101.734 36.3465 101.366 35.6896C99.1027 31.6322 95.6907 28.3816 91.4954 26.2872C87.2208 24.1534 82.4413 23.0733 77.2851 23.0733C68.9162 23.0733 59.6765 25.9613 51.2612 31.2065C48.5917 32.8673 46.0422 34.7751 43.6866 36.8721C37.3267 42.5167 32.1186 49.767 28.6274 57.8371C25.24 65.6733 23.4576 74.2874 23.4767 82.7517V82.7648V82.7779C23.5832 93.7965 26.1735 104.902 31.1796 115.778C39.8652 134.662 55.1318 152.784 75.3307 168.183C79.2913 171.205 83.716 173.531 88.4792 175.099C93.1113 176.624 97.9536 177.399 102.872 177.399C112.939 177.399 122.842 174.077 130.761 168.046C136.307 163.821 141.739 159.222 146.911 154.379C152.671 148.979 157.961 143.176 162.634 137.13C167.362 131.02 171.415 124.716 174.682 118.39C178.209 111.563 180.827 104.692 182.464 97.9643C186.182 82.6912 184.924 68.267 178.719 55.0857C174.846 46.8527 168.552 39.3213 160.513 33.314C152.114 27.0361 143.035 23.365 134.26 22.6949C133.411 22.6292 132.551 22.5977 131.705 22.5977L131.702 22.6029Z" fill="white"/>
<path d="M109.602 67.0801L109.828 67.5084L109.839 67.511L109.612 67.0827L109.602 67.0801Z" stroke="black" stroke-width="0.0656961" stroke-miterlimit="10"/>
<path d="M159.567 134.933C154.877 141.001 149.675 146.65 144.245 151.741C139.234 156.437 133.93 160.938 128.389 165.158C113.54 176.474 92.5471 176.624 77.7008 165.3C59.6555 151.538 43.8403 134.213 34.6716 114.286C30.1514 104.458 27.4054 93.7782 27.299 82.7412C27.2635 66.7219 33.9619 50.5054 46.2833 39.5684C40.0216 49.1311 36.716 60.4965 36.7406 71.77C36.8471 82.8069 39.593 93.4865 44.116 103.315C53.2847 123.242 69.0999 140.567 87.1452 154.329C101.986 165.652 122.982 165.503 137.834 154.187C143.369 149.967 148.678 145.465 153.69 140.769C155.688 138.898 157.651 136.951 159.569 134.933H159.567Z" fill="#E0C281"/>
<path d="M159.567 134.93C157.648 136.948 155.686 138.893 153.688 140.766C148.676 145.462 143.367 149.964 137.831 154.184C122.983 165.5 101.987 165.649 87.143 154.326C69.0977 140.564 53.2825 123.239 44.1138 103.312C39.5936 93.4836 36.8476 82.8041 36.7384 71.7671C36.7112 60.4963 40.0194 49.1282 46.2811 39.5655C48.4566 37.6288 50.8122 35.8602 53.3343 34.2862C63.7341 27.8059 78.0617 23.717 89.7334 29.5455C96.8522 33.0984 101.168 40.7086 100.182 48.4082C100.33 47.2493 101.498 45.7357 102.088 44.7292C108.54 33.7501 120.384 25.3252 133.953 26.3606C142.848 27.0386 151.193 31.0066 158.164 36.2176C165.354 41.5916 171.468 48.5921 175.238 56.6018C187.734 83.1562 177.312 111.997 159.565 134.933L159.567 134.93Z" fill="#FFE094"/>
<path d="M98.4922 84.6273C98.4922 89.5861 97.6596 94.2268 96.2048 98.1949C94.1876 88.7741 88.6929 82.0126 82.2238 82.0126C75.7547 82.0126 70.2628 88.7741 68.2483 98.1975C66.7935 94.2295 65.9609 89.5887 65.9609 84.6273C65.9609 69.9771 73.2435 58.1045 82.2238 58.1045C90.1123 58.1045 96.6824 67.252 98.1783 79.3926C98.383 81.085 98.4922 82.8351 98.4922 84.6273Z" fill="white" stroke="#0B0B0C" stroke-width="3.15341" stroke-linejoin="round"/>
<path d="M96.2045 98.195C93.3684 105.958 88.1686 111.155 82.2235 111.155C79.8461 111.155 77.5887 110.325 75.5497 108.825C72.498 106.586 69.9486 102.854 68.248 98.1976C70.2625 88.7741 75.7599 82.0127 82.2235 82.0127C88.6872 82.0127 94.1873 88.7741 96.2045 98.195Z" fill="black" stroke="#0B0B0C" stroke-width="3.15341" stroke-miterlimit="10"/>
<path d="M128.744 57.9717C120.858 57.9717 114.288 67.1192 112.792 79.2598C112.588 80.9495 112.479 82.7023 112.479 84.4945C112.479 99.15 119.758 111.023 128.744 111.023C131.124 111.023 133.382 110.19 135.421 108.692C141.074 104.542 145.007 95.2687 145.007 84.4945C145.007 69.8443 137.727 57.9717 128.744 57.9717Z" fill="white" stroke="#0B0B0C" stroke-width="3.15341" stroke-linejoin="round"/>
<path d="M86.3945 125.17C86.3945 125.17 104.958 148.376 126.746 122.839L86.3945 125.17Z" fill="#FFE094"/>
<path d="M86.3945 125.17C86.3945 125.17 104.958 148.376 126.746 122.839" stroke="#0B0B0C" stroke-width="4.73012" stroke-linecap="round" stroke-linejoin="round"/>
<path d="M65.1833 111.21C66.9439 106.561 71.707 103.518 76.8168 104.059C80.742 104.477 83.5453 106.787 85.3577 109.191C87.888 112.545 89.0399 116.67 88.8952 120.812C88.7424 125.206 87.5059 131.373 82.205 134.411C82.1886 134.421 82.1723 134.429 82.1559 134.44C82.1313 134.453 82.1095 134.466 82.0849 134.479C78.8858 136.264 74.917 136.179 71.7561 134.329C70.5469 133.623 69.4742 132.711 68.5898 131.646C63.3599 125.353 62.4155 118.515 65.1833 111.207V111.21Z" fill="#FFC33E" stroke="#FFE094" stroke-width="3.67898" stroke-linecap="round" stroke-linejoin="round"/>
<path d="M143.023 98.195C140.187 105.958 134.987 111.155 129.042 111.155C126.664 111.155 124.407 110.325 122.368 108.825C119.316 106.586 116.767 102.854 115.066 98.1976C117.081 88.7741 122.578 82.0127 129.042 82.0127C135.506 82.0127 141.006 88.7741 143.023 98.195Z" fill="black" stroke="#0B0B0C" stroke-width="2.10228" stroke-miterlimit="10"/>
<path d="M76.3876 115.67C78.566 115.67 80.3319 114.911 80.3319 113.975C80.3319 113.039 78.566 112.28 76.3876 112.28C74.2092 112.28 72.4434 113.039 72.4434 113.975C72.4434 114.911 74.2092 115.67 76.3876 115.67Z" fill="white"/>
<path d="M146.945 111.21C145.184 106.561 140.421 103.518 135.311 104.059C131.386 104.477 128.583 106.787 126.77 109.191C124.24 112.545 123.088 116.67 123.233 120.812C123.386 125.206 124.622 131.373 129.923 134.411C129.939 134.421 129.956 134.429 129.972 134.44C129.997 134.453 130.019 134.466 130.043 134.479C133.242 136.264 137.211 136.179 140.372 134.329C141.581 133.623 142.654 132.711 143.538 131.646C148.768 125.353 149.713 118.515 146.945 111.207V111.21Z" fill="#FFC33E" stroke="#FFE094" stroke-width="3.67898" stroke-linecap="round" stroke-linejoin="round"/>
<path d="M135.739 115.67C137.918 115.67 139.683 114.911 139.683 113.975C139.683 113.039 137.918 112.28 135.739 112.28C133.561 112.28 131.795 113.039 131.795 113.975C131.795 114.911 133.561 115.67 135.739 115.67Z" fill="white"/>
<path d="M128.744 93.0158C128.744 94.9841 127.087 96.5792 125.042 96.5792C122.998 96.5792 121.344 94.9841 121.344 93.0158C121.344 91.0475 123.001 89.4551 125.042 89.4551C127.084 89.4551 128.744 91.0502 128.744 93.0158Z" fill="white"/>
<path d="M89.2905 93.0158C89.2905 94.9841 87.6337 96.5792 85.5892 96.5792C83.5448 96.5792 81.8906 94.9841 81.8906 93.0158C81.8906 91.0475 83.5475 89.4551 85.5892 89.4551C87.631 89.4551 89.2905 91.0502 89.2905 93.0158Z" fill="white"/>
</svg>

<svg xmlns="http://www.w3.org/2000/svg" width="208" height="200" fill="none" viewBox="0 0 208 200"><path fill="#7e55a3" d="M102.872 186.854c-12.177 0-24.127-4-33.645-11.261-21.438-16.347-37.704-35.709-47.03-55.988-5.55-12.065-8.424-24.429-8.544-36.746v-.094c-.022-9.707 2.02-19.586 5.906-28.57 4.032-9.321 10.072-17.72 17.473-24.287a65.4 65.4 0 0 1 8.898-6.656c9.977-6.22 21.116-9.647 31.357-9.647 6.748 0 13.05 1.438 18.734 4.276a33.2 33.2 0 0 1 7.536 5.163 51 51 0 0 1 3.213-2.291c7.604-4.985 16.227-7.618 24.935-7.618 1.105 0 2.227.042 3.332.126 10.692.817 21.586 5.164 31.503 12.577 9.297 6.95 16.604 15.714 21.132 25.345 7.116 15.121 8.585 31.587 4.359 48.939-3.499 14.374-10.741 28.727-21.52 42.657-4.981 6.444-10.615 12.627-16.743 18.372a218 218 0 0 1-16.91 14.308c-9.646 7.348-21.717 11.395-33.986 11.395"/><path fill="#0b0b0b" d="M131.703 26.273q1.119 0 2.255.087c8.895.678 17.24 4.646 24.211 9.857 7.187 5.374 13.304 12.377 17.071 20.387 12.496 26.552 2.074 55.395-15.671 78.328-4.692 6.068-9.895 11.72-15.321 16.81a204 204 0 0 1-15.856 13.418c-7.474 5.692-16.5 8.559-25.516 8.559s-17.794-2.793-25.17-8.42c-18.045-13.762-33.863-31.084-43.03-51.011-4.52-9.829-7.268-20.51-7.375-31.548-.035-16.019 6.66-32.235 18.985-43.17a51.4 51.4 0 0 1 7.053-5.28c6.895-4.298 15.518-7.541 23.947-7.541 4.285 0 8.519.838 12.452 2.801 7.119 3.556 11.434 11.163 10.449 18.863.147-1.156 1.316-2.673 1.905-3.68 6.09-10.363 16.989-18.455 29.611-18.455M131.706 0c-9.647 0-19.159 2.423-27.82 7.05a53 53 0 0 0-1.581-.827C94.657 2.404 86.239.47 77.285.47c-7.028 0-14.237 1.21-21.43 3.59-6.004 1.99-11.843 4.738-17.354 8.175a79 79 0 0 0-10.75 8.041c-8.827 7.842-16.016 17.825-20.796 28.875C2.38 59.731-.025 71.364 0 82.798v.189c.137 14.12 3.404 28.229 9.712 41.943 5.407 11.755 12.851 23.175 22.129 33.949 8.281 9.618 18.007 18.708 28.909 27.023a68.3 68.3 0 0 0 20.128 10.585 70.3 70.3 0 0 0 21.99 3.513 70.9 70.9 0 0 0 22.205-3.571 69.2 69.2 0 0 0 20.248-10.659 232 232 0 0 0 17.952-15.191l.006-.006.005-.005c6.647-6.23 12.761-12.942 18.174-19.945 5.555-7.179 10.348-14.64 14.235-22.166 4.331-8.386 7.569-16.908 9.619-25.332 2.314-9.51 3.144-18.987 2.464-28.171a82.6 82.6 0 0 0-7.683-29.193c-5.438-11.562-14.15-22.042-25.192-30.296-12.029-8.99-25.445-14.28-38.795-15.297A59 59 0 0 0 131.697 0z"/><path fill="#7e55a3" d="M102.872 175.555c-9.543 0-18.903-3.132-26.357-8.819-19.956-15.215-35.029-33.098-43.589-51.708-4.897-10.648-7.435-21.506-7.54-32.275-.035-16.97 7.292-33.618 19.602-44.542a53.6 53.6 0 0 1 7.313-5.471c8.106-5.054 16.98-7.837 24.983-7.837 4.848 0 9.333 1.012 13.332 3.007 5.743 2.867 9.742 8.02 11.107 13.84 7.148-10.742 18.441-17.322 29.979-17.322a32 32 0 0 1 2.407.092c8.405.64 17.128 4.18 25.232 10.238 7.793 5.826 13.894 13.115 17.639 21.08 6.024 12.8 7.244 26.83 3.625 41.699-3.087 12.677-9.832 25.984-19.506 38.487-4.613 5.968-9.837 11.697-15.52 17.029a208 208 0 0 1-16.004 13.544c-7.583 5.776-17.065 8.955-26.703 8.955z"/><path fill="#fff" d="M131.702 26.277q1.12 0 2.255.086c8.896.678 17.24 4.646 24.211 9.857 7.187 5.374 13.304 12.378 17.071 20.387 12.496 26.552 2.075 55.395-15.67 78.328-4.693 6.068-9.895 11.721-15.322 16.811a205 205 0 0 1-15.856 13.417c-7.473 5.692-16.5 8.559-25.516 8.559s-17.794-2.793-25.17-8.419c-18.045-13.762-33.863-31.085-43.029-51.012-4.52-9.828-7.269-20.51-7.375-31.547-.036-16.02 6.663-32.236 18.984-43.17a51.4 51.4 0 0 1 7.053-5.28c6.895-4.299 15.518-7.542 23.947-7.542 4.286 0 8.52.839 12.453 2.802 7.118 3.555 11.434 11.163 10.448 18.862.148-1.156 1.316-2.672 1.906-3.679 6.089-10.364 16.989-18.455 29.61-18.455m0-3.68c-6.726 0-13.438 2.069-19.404 5.98-3.721 2.435-7.086 5.53-9.939 9.113a22 22 0 0 0-.993-2.005c-2.263-4.058-5.675-7.308-9.87-9.403-4.275-2.134-9.055-3.214-14.21-3.214-8.37 0-17.61 2.888-26.025 8.133a55.6 55.6 0 0 0-7.574 5.666c-6.36 5.645-11.568 12.895-15.06 20.965-3.387 7.836-5.17 16.45-5.15 24.915v.026c.106 11.018 2.697 22.124 7.703 33 8.685 18.884 23.952 37.006 44.15 52.405a44.6 44.6 0 0 0 13.15 6.916 46 46 0 0 0 14.392 2.3c10.067 0 19.97-3.322 27.889-9.353a209 209 0 0 0 16.15-13.667c5.76-5.4 11.05-11.203 15.723-17.249 4.728-6.11 8.781-12.414 12.048-18.74 3.527-6.827 6.145-13.698 7.782-20.426 3.718-15.273 2.46-29.697-3.745-42.878-3.873-8.233-10.167-15.765-18.206-21.772-8.399-6.278-17.478-9.949-26.253-10.62a33 33 0 0 0-2.555-.096z"/><path stroke="#000" stroke-miterlimit="10" stroke-width=".066" d="m109.602 67.08.226.428.011.003-.227-.428z"/><path fill="#e0c281" d="M159.567 134.933c-4.69 6.068-9.892 11.717-15.322 16.808a204 204 0 0 1-15.856 13.417c-14.849 11.316-35.842 11.466-50.688.142-18.045-13.762-33.86-31.087-43.03-51.014-4.52-9.828-7.266-20.508-7.372-31.545-.035-16.02 6.663-32.236 18.984-43.173-6.261 9.563-9.567 20.929-9.542 32.202.106 11.037 2.852 21.717 7.375 31.545 9.169 19.927 24.984 37.252 43.03 51.014 14.84 11.323 35.836 11.174 50.688-.142a205 205 0 0 0 15.856-13.418 142 142 0 0 0 5.879-5.836z"/><path fill="#ffe094" d="M159.567 134.93a144 144 0 0 1-5.879 5.836 205 205 0 0 1-15.857 13.418c-14.848 11.316-35.844 11.465-50.688.142-18.045-13.762-33.86-31.087-43.03-51.014-4.52-9.828-7.265-20.508-7.375-31.545-.027-11.27 3.281-22.639 9.543-32.201a52 52 0 0 1 7.053-5.28c10.4-6.48 24.728-10.569 36.4-4.74 7.118 3.552 11.434 11.163 10.448 18.862.148-1.159 1.316-2.672 1.906-3.679 6.452-10.979 18.296-19.404 31.865-18.368 8.895.678 17.24 4.646 24.211 9.857 7.19 5.374 13.304 12.374 17.074 20.384 12.496 26.554 2.074 55.395-15.673 78.331z"/><path fill="#fff" stroke="#0b0b0c" stroke-linejoin="round" stroke-width="3.153" d="M98.492 84.627c0 4.96-.832 9.6-2.287 13.568-2.017-9.42-7.512-16.182-13.981-16.182s-11.961 6.761-13.976 16.185c-1.455-3.968-2.287-8.61-2.287-13.57 0-14.65 7.282-26.523 16.263-26.523 7.888 0 14.458 9.147 15.954 21.288a44 44 0 0 1 .314 5.234Z"/><path fill="#000" stroke="#0b0b0c" stroke-miterlimit="10" stroke-width="3.153" d="M96.205 98.195c-2.837 7.763-8.036 12.96-13.981 12.96-2.378 0-4.635-.83-6.674-2.33-3.052-2.239-5.601-5.971-7.302-10.627 2.014-9.424 7.512-16.185 13.975-16.185 6.464 0 11.964 6.761 13.981 16.182Z"/><path fill="#fff" stroke="#0b0b0c" stroke-linejoin="round" stroke-width="3.153" d="M128.744 57.972c-7.886 0-14.456 9.147-15.952 21.288a44 44 0 0 0-.313 5.234c0 14.656 7.279 26.529 16.265 26.529 2.38 0 4.638-.833 6.677-2.331 5.653-4.15 9.586-13.423 9.586-24.197 0-14.65-7.28-26.523-16.263-26.523Z"/><path fill="#ffe094" d="M86.395 125.17s18.563 23.206 40.351-2.331z"/><path stroke="#0b0b0c" stroke-linecap="round" stroke-linejoin="round" stroke-width="4.73" d="M86.395 125.17s18.563 23.206 40.351-2.331"/><path fill="#ffc33e" stroke="#ffe094" stroke-linecap="round" stroke-linejoin="round" stroke-width="3.679" d="M65.183 111.21c1.76-4.649 6.524-7.692 11.634-7.151 3.925.418 6.728 2.728 8.54 5.132 2.531 3.354 3.683 7.479 3.538 11.621-.153 4.394-1.39 10.561-6.69 13.599l-.05.029-.07.039c-3.2 1.785-7.168 1.7-10.329-.15a12 12 0 0 1-3.166-2.683c-5.23-6.293-6.175-13.131-3.407-20.439z"/><path fill="#000" stroke="#0b0b0c" stroke-miterlimit="10" stroke-width="2.102" d="M143.023 98.195c-2.836 7.763-8.036 12.96-13.981 12.96-2.378 0-4.635-.83-6.674-2.33-3.052-2.239-5.601-5.971-7.302-10.627 2.015-9.424 7.512-16.185 13.976-16.185s11.964 6.761 13.981 16.182Z"/><path fill="#fff" d="M76.388 115.67c2.178 0 3.944-.759 3.944-1.695s-1.766-1.695-3.944-1.695-3.945.759-3.945 1.695 1.766 1.695 3.945 1.695"/><path fill="#ffc33e" stroke="#ffe094" stroke-linecap="round" stroke-linejoin="round" stroke-width="3.679" d="M146.945 111.21c-1.761-4.649-6.524-7.692-11.634-7.151-3.925.418-6.728 2.728-8.541 5.132-2.53 3.354-3.682 7.479-3.537 11.621.153 4.394 1.389 10.561 6.69 13.599l.049.029.071.039c3.199 1.785 7.168 1.7 10.329-.15a12 12 0 0 0 3.166-2.683c5.23-6.293 6.175-13.131 3.407-20.439z"/><path fill="#fff" d="M135.739 115.67c2.179 0 3.944-.759 3.944-1.695s-1.765-1.695-3.944-1.695c-2.178 0-3.944.759-3.944 1.695s1.766 1.695 3.944 1.695m-6.995-22.654c0 1.968-1.657 3.563-3.702 3.563s-3.698-1.595-3.698-3.563 1.657-3.56 3.698-3.56 3.702 1.594 3.702 3.56m-39.454 0c0 1.968-1.656 3.563-3.7 3.563s-3.7-1.595-3.7-3.563 1.657-3.56 3.7-3.56c2.041 0 3.7 1.594 3.7 3.56"/></svg>
